icons/core/alarm-slash.svg

<svg width="32" height="32" viewBox="0 0 32 32" fill="none" xmlns="http://www.w3.org/2000/svg">
<path fill-rule="evenodd" clip-rule="evenodd" d="M24.7733 25.1875L29.7929 30.2071L31.2071 28.7929L4.20713 1.79289L2.79291 3.20711L4.33598 4.75017L1.29321 7.79291L2.70742 9.20713L5.75019 6.16439L7.8128 8.227C5.46691 10.4173 4.00032 13.5374 4.00032 17C4.00032 23.6274 9.3729 29 16.0003 29C19.463 29 22.583 27.5334 24.7733 25.1875ZM23.3581 23.7723L9.22802 9.64222C7.2436 11.4697 6.00032 14.0896 6.00032 17C6.00032 22.5229 10.4775 27 16.0003 27C18.9107 27 21.5307 25.7567 23.3581 23.7723ZM28.0003 17C28.0003 18.7914 27.6078 20.4912 26.904 22.0179L25.3749 20.4888C25.7793 19.4026 26.0003 18.2271 26.0003 17C26.0003 11.4772 21.5232 7.00001 16.0003 7.00001C14.7732 7.00001 13.5978 7.22103 12.5115 7.62543L10.9824 6.09632C12.5092 5.39255 14.2089 5.00001 16.0003 5.00001C22.6277 5.00001 28.0003 10.3726 28.0003 17ZM24.7075 1.79291L30.7075 7.79291L29.2933 9.20713L23.2933 3.20713L24.7075 1.79291Z" fill="black"/>
</svg>

<svg width="32" height="32" viewBox="0 0 32 32" xmlns="http://www.w3.org/2000/svg">
    <path fill-rule="evenodd" d="M24.773 25.188l5.02 5.02 1.414-1.415-27-27-1.414 1.414L4.336 4.75 1.293 7.793l1.414 1.414L5.75 6.164l2.063 2.063A11.967 11.967 0 004 17c0 6.627 5.373 12 12 12 3.463 0 6.583-1.467 8.773-3.813zm-1.415-1.416L9.228 9.642A9.973 9.973 0 006 17c0 5.523 4.477 10 10 10 2.91 0 5.53-1.243 7.358-3.228zM28 17c0 1.791-.392 3.491-1.096 5.018l-1.53-1.53A9.98 9.98 0 0026 17c0-5.523-4.477-10-10-10a9.98 9.98 0 00-3.489.625l-1.529-1.529A11.956 11.956 0 0116 5c6.628 0 12 5.373 12 12zM24.707 1.793l6 6-1.414 1.414-6-6 1.415-1.414z"/>
</svg>
